assets/images/school__course-item--global.svg

<svg fill="none" height="22" viewBox="0 0 175 22" width="175" xmlns="http://www.w3.org/2000/svg"><path d="m21.4199 10.71c0-5.52201-2.73-10.71-10.7099-10.71-7.98002 0-10.71 5.18799-10.71 10.71 0 5.5222 2.72998 10.7102 10.71 10.7102 7.9799 0 10.7099-5.188 10.7099-10.7102z" fill="#c89409"/><path d="m4.896 14.2766c0-.802.40893-1.3989 1.46704-1.3989.76794 0 1.51892.3579 2.16699.4949.22192-.3921.34192-1.0921.40991-1.5359l.13599-.9551c-1.14295-.188-2.50794-.666-3.46399-1.65504l1.07507-1.41797c.90491.75196 1.84302 1.11109 2.62793 1.28101.35803-2.45801 1.33106-4.0271 3.66906-4.0271 1.177 0 2.526.78516 2.526 2.38916 0 1.29688-1.041 3.27584-4.4031 3.51494l-.1709 1.1779c-.085.563-.29 1.45-.5631 1.9112.4441.187 1.0241.2729 1.6731.2729 1.211 0 2.167-.6831 2.9519-2.1841l1.4501.699c-.887 1.894-2.338 3.208-4.4711 3.1401-1.006-.0339-2.01291-.29-2.95188-.614-.58007.4429-1.31408.614-2.06506.614-1.29602 0-2.047-.768-2.06396-1.707zm8.6-6.77391c0-.42701-.273-.6482-.648-.6482-.717 0-1.229.9541-1.451 2.30298 1.706-.23779 2.099-1.19385 2.099-1.65478z" fill="#fff"/><g fill="#231815"><path d="m25.568 10.4573c0-.388.157-.64187.441-.92507.206-.19483.428-.44898.6969-.80689.505-.70093 1.026-1.58203 1.3581-2.83594.1259-.44897.395-.67211.869-.67211h.916c.538 0 .837.29809.71.77612l-.189.77685h4.408c.5059 0 .79.26807.775.77613-.063 2.43286-.474 4.07491-.885 4.92501-1.596 3.2849-4.929 4.793-7.078 5.316-.521.134-.854-.1351-.854-.659v-.9092c0-.4489.237-.687.695-.8208.981-.2841 2.308-.9411 3.272-1.7761 1.278-1.0901 2.038-2.4189 2.2119-4.62889h-3.5089c-.7731 1.11989-1.2311 1.64279-1.7841 2.17989-.286.284-.6959.6421-1.0909.9551-.505.388-.963.1338-.963-.478zm6.9039-5.26907v-.86596c0-.47803.2211-.74805.6001-.74805.3789 0 .6.27002.6.74805v.86596c0 .47608-.204.7461-.6.7461-.379 0-.6001-.27002-.6001-.7461zm1.88-.86596c0-.47803.2221-.74805.6001-.74805.3789 0 .601.27002.601.74805v.86596c0 .47608-.205.7461-.601.7461-.378 0-.6001-.27002-.6001-.7461z"/><path d="m39.303 16.2795v-9.43502c0-.4768.284-.74682.7889-.74682h8.359c.505 0 .7891.27002.7891.74682v9.43502c0 .4771-.2841.7461-.7891.7461h-8.359c-.5049 0-.7889-.269-.7889-.7461zm7.347-7.83785h-4.7721v6.23995h4.7721z"/><path d="m52.9089 12.4143v-.853c0-.4771.2841-.7449.7901-.7449h5.7199c.506 0 .7901.2678.7901.7449v.853c0 .478-.2841.7461-.7901.7461h-5.7199c-.506 0-.7901-.2681-.7901-.7461z"/><path d="m64.9229 8.75708v-2.37402c0-.47803.283-.7461.7901-.7461h.8679c.5071 0 .79.26807.79.7461v2.37402c0 2.92502-.349 5.32792-1.375 7.88082-.156.4021-.458.583-.901.583h-1.12c-.5849 0-.8389-.3439-.6159-.8659 1.089-2.6428 1.5639-5.344 1.5639-7.59792zm4.928-2.37402c0-.47803.2851-.7461.791-.7461h.8691c.0629 0 .1259 0 .1879.01416-.062-.12011-.0939-.26904-.0939-.46216v-.86596c0-.47803.2209-.74683.5999-.74683.3791 0 .6.2688.6.74683v.86596c0 .47608-.204.7461-.6.7461h-.015c.062.1189.11.26904.11.448v2.37402c0 2.25392.473 4.95512 1.5651 7.59792.2199.522-.032.8659-.6171.8659h-1.122c-.442 0-.743-.1809-.9-.583-1.027-2.5529-1.375-4.9558-1.375-7.88082zm3.6341-1.1941v-.86596c0-.47803.223-.74683.5999-.74683.38 0 .6021.2688.6021.74683v.86596c0 .47608-.2061.7461-.6021.7461-.3769 0-.5999-.27002-.5999-.7461z"/><path d="m78.6081 10.0691v-3.4939c0-.47803.2849-.7461.7899-.7461h.807c.505 0 .789.26807.789.7461v3.4939c0 2.104-.378 4.866-1.2 6.6121-.174.3889-.49.5388-.917.5388h-1.011c-.6 0-.8371-.344-.6-.866.854-1.9109 1.3421-3.9109 1.3421-6.2849zm3.729 6.5979v-10.25489c0-.47803.2858-.74805.7908-.74805h.8201c.506 0 .792.27002.792.74805v7.89699c.884-.3601 1.5-.7171 2.117-1.2251.536-.4329.947-.283.947.373v1.104c0 .3741-.11.6731-.4261.972-1.2009 1.059-2.7819 1.5962-4.2019 1.8352-.523.0898-.8389-.1932-.8389-.7012z"/><path d="m91.1279 15.1897c.3461-.5979.6631-1.2988.8991-2.031.159-.4778.5059-.6419.9959-.4629l.506.1799c.458.1641.6471.4922.505.9402-.2529.8508-.5849 1.732-.964 2.4629-.2359.4331-.6319.523-1.0749.2691l-.6-.3282c-.441-.2529-.5061-.5969-.2671-1.03zm1.1051-10.18189c0-.47705.2849-.74609.7899-.74609h9.4001c.506 0 .791.26904.791.74609v5.82199c0 .4781-.285.7471-.791.7471h-4.3121c.6.3279 1.2161.731 1.7061 1.1189.394.3291.379.717.016 1.061l-.427.4019c-.3631.344-.7421.3291-1.1221 0-.442-.4019-1.027-.835-1.6119-1.1919-.411-.241-.458-.584-.1271-.896l.5231-.4939h-4.0451c-.505 0-.7899-.269-.7899-.7471zm4.424 1.11988h-2.354v.91015h2.354zm0 2.64306h-2.354v.94116h2.354zm-2.1971 4.94115c0-.478.2851-.7451.7901-.7451h1.422v2.1331c0 .4619.1119.5068.79.5068h1.7379c.4261 0 .6-.1189.6951-.7749.08-.523.301-.6421.775-.4329.174.073.378.148.569.2239.459.148.679.4319.601.9099-.301 1.5962-.949 2.0291-2.45 2.0291h-2.212c-2.1971 0-2.7181-.6121-2.7181-2.4329zm6.5881-7.58421h-2.2741v.91015h2.2741zm0 2.64306h-2.2741v.94116h2.2741zm.839 4.07495.506-.209c.441-.1789.805-.104 1.058.2991.506.7461.979 1.5969 1.28 2.343.173.448-.017.761-.458.9561l-.68.2819c-.49.21-.822.045-.996-.446-.252-.688-.632-1.4929-1.058-2.2251-.269-.4468-.142-.791.348-1z"/><path d="m107.895 11.8604c1.058-.4031 2.102-.8802 3.081-1.4031.047-.239.174-.3289.316-.313l.237.029c.38-.20797.744-.43307 1.105-.65694h-4.122c-.506 0-.79-.26807-.79-.7461v-.31298c0-.47803.284-.74585.79-.74585h3.649v-.88208h-2.511c-.507 0-.791-.26807-.791-.7461v-.2539c0-.47803.284-.7461.791-.7461h2.511v-.68701c0-.47803.284-.74585.79-.74585h.585c.505 0 .789.25391.789.71704v.71582h2.134c.506 0 .79.12012.79.35816v.37402c.331-.34399.632-.68701.916-1.04517.3-.37402.648-.46289 1.089-.22387l.381.20898c.458.25293.568.62598.221 1.02905-.553.67286-1.154 1.31495-1.785 1.92701h2.117c.505 0 .789.26782.789.74585v.31298c0 .47803-.284.7461-.789.7461h-4.219c-.521.38794-1.027.76194-1.564 1.11984 1.121-.134 2.196-.2988 3.081-.5078.426-.0891.757 0 1.043.313l.173.1948c.395.4331.285.866-.315.9861-1.723.3579-3.761.582-5.626.6851l-.127.583h5.973c.537 0 .838.165.806.4328-.015.1492-.047.313-.079.4331-.332 1.941-.727 2.97-1.248 3.448-.458.4329-.917.553-1.627.597-.363.031-.901.0451-1.501.0451-.506 0-.743-.238-.854-.687-.031-.1482-.078-.299-.125-.447-.207-.5391-.017-.8362.6-.8071.458.0161.884.03 1.121.03.269 0 .474-.03.648-.1479.221-.1502.411-.523.585-1.1651h-4.757s-.426.6121-.915.5371l-.585-.0752c-.537-.0739-.742-.4028-.6-.895.11-.3879.222-.8208.332-1.2678-.459.2229-.932.4328-1.39.6399-.443.195-.79.0749-1.076-.2979-.095-.134-.205-.269-.315-.403-.348-.4332-.253-.805.268-1zm8.326-5.03105h-1.896v.88208h.854c.364-.28418.71-.58301 1.042-.88208z"/><path d="m137.304 7.1875c0 .1792-.015.37207-.032.49219-.284 5.86691-.568 8.15091-1.248 8.97191-.489.6409-.979.8359-1.674.94-.426.0749-1.043.0891-1.691.0891-.49 0-.727-.2381-.837-.687-.047-.2381-.127-.4771-.221-.7151-.205-.5369-.033-.836.584-.8069.489.0158.9.0158 1.154.0158.299 0 .49-.061.695-.2539.426-.4331.71-2.3139.931-6.33004h-3.743c-.222 2.94094-1.201 6.37404-4.819 8.64304-.411.2539-.775.1651-1.091-.1931-.189-.2258-.394-.4328-.616-.6428-.395-.3731-.348-.717.127-1 2.922-1.8211 3.807-4.4941 4.06-6.80714h-3.571c-.506 0-.79-.26806-.79-.74609v-.73193c0-.47803.284-.74585.79-.74585h3.666v-2.25415c0-.47803.284-.74585.79-.74585h.742c.505 0 .79.26782.79.74585v2.25415h5.214c.521 0 .805.17895.79.50781z"/><path d="m140.881 16.2795v-.852c0-.4768.284-.7459.79-.7459h6.351v-6.23995h-6.351c-.506 0-.79-.26807-.79-.74609v-.8501c0-.47778.284-.7478.79-.7478h8.136c.506 0 .79.27002.79.7478v9.43404c0 .4781-.284.7461-.79.7461h-8.136c-.506 0-.79-.268-.79-.7461z"/><path d="m154.33 12.4143v-.853c0-.4771.285-.7449.791-.7449h5.719c.506 0 .791.2678.791.7449v.853c0 .478-.285.7461-.791.7461h-5.719c-.506 0-.791-.2681-.791-.7461z"/><path d="m164.699 16.7878v-1.195c0-.4031.174-.6709.538-.896 2.78-1.6409 4.581-3.627 5.766-6.44802h-4.929c-.506 0-.79-.26904-.79-.74609v-.91089c0-.47803.284-.7461.79-.7461h7.409c.553 0 .837.31299.695.82105-.49 1.96997-1.374 3.65695-2.338 5.06005.742 1.03 1.818 2 2.717 2.7319.316.2542.443.522.443.9102v1.21c0 .6259-.443.8498-.979.4609-1.375-1.0291-2.465-2.0889-3.586-3.5061-1.091 1.2681-3.003 2.821-4.804 3.791-.521.2981-.932.0452-.932-.5369z"/></g></svg>

<svg width="175" height="22" viewBox="0 0 175 22" fill="none" xmlns="http://www.w3.org/2000/svg">
<path d="M21.4199 10.71C21.4199 5.18799 18.6899 0 10.71 0C2.72998 0 0 5.18799 0 10.71C0 16.2322 2.72998 21.4202 10.71 21.4202C18.6899 21.4202 21.4199 16.2322 21.4199 10.71Z" fill="#C89409"/>
<path d="M4.896 14.2766C4.896 13.4746 5.30493 12.8777 6.36304 12.8777C7.13098 12.8777 7.88196 13.2356 8.53003 13.3726C8.75195 12.9805 8.87195 12.2805 8.93994 11.8367L9.07593 10.8816C7.93298 10.6936 6.56799 10.2156 5.61194 9.22656L6.68701 7.80859C7.59192 8.56055 8.53003 8.91968 9.31494 9.0896C9.67297 6.63159 10.646 5.0625 12.984 5.0625C14.161 5.0625 15.51 5.84766 15.51 7.45166C15.51 8.74854 14.469 10.7275 11.1069 10.9666L10.936 12.1445C10.851 12.7075 10.646 13.5945 10.3729 14.0557C10.817 14.2427 11.397 14.3286 12.046 14.3286C13.257 14.3286 14.213 13.6455 14.9979 12.1445L16.448 12.8435C15.561 14.7375 14.11 16.0515 11.9769 15.9836C10.9709 15.9497 9.96399 15.6936 9.02502 15.3696C8.44495 15.8125 7.71094 15.9836 6.95996 15.9836C5.66394 15.9836 4.91296 15.2156 4.896 14.2766ZM13.496 7.50269C13.496 7.07568 13.223 6.85449 12.848 6.85449C12.131 6.85449 11.619 7.80859 11.397 9.15747C13.103 8.91968 13.496 7.96362 13.496 7.50269Z" fill="white"/>
<path d="M25.568 10.4573C25.568 10.0693 25.725 9.81543 26.009 9.53223C26.215 9.3374 26.437 9.08325 26.7059 8.72534C27.2109 8.02441 27.7319 7.14331 28.064 5.8894C28.1899 5.44043 28.459 5.21729 28.933 5.21729H29.849C30.387 5.21729 30.686 5.51538 30.559 5.99341L30.37 6.77026H34.778C35.2839 6.77026 35.568 7.03833 35.553 7.54639C35.49 9.97925 35.079 11.6213 34.668 12.4714C33.072 15.7563 29.739 17.2644 27.59 17.7874C27.069 17.9214 26.736 17.6523 26.736 17.1284V16.2192C26.736 15.7703 26.973 15.5322 27.431 15.3984C28.412 15.1143 29.739 14.4573 30.703 13.6223C31.981 12.5322 32.741 11.2034 32.9149 8.99341H29.406C28.6329 10.1133 28.1749 10.6362 27.6219 11.1733C27.3359 11.4573 26.926 11.8154 26.531 12.1284C26.026 12.5164 25.568 12.2622 25.568 11.6504V10.4573ZM32.4719 5.18823V4.32227C32.4719 3.84424 32.693 3.57422 33.072 3.57422C33.4509 3.57422 33.672 3.84424 33.672 4.32227V5.18823C33.672 5.66431 33.468 5.93433 33.072 5.93433C32.693 5.93433 32.4719 5.66431 32.4719 5.18823ZM34.3519 4.32227C34.3519 3.84424 34.574 3.57422 34.952 3.57422C35.3309 3.57422 35.553 3.84424 35.553 4.32227V5.18823C35.553 5.66431 35.348 5.93433 34.952 5.93433C34.574 5.93433 34.3519 5.66431 34.3519 5.18823V4.32227Z" fill="#231815"/>
<path d="M39.303 16.2795V6.84448C39.303 6.36768 39.587 6.09766 40.0919 6.09766H48.4509C48.9559 6.09766 49.24 6.36768 49.24 6.84448V16.2795C49.24 16.7566 48.9559 17.0256 48.4509 17.0256H40.0919C39.587 17.0256 39.303 16.7566 39.303 16.2795ZM46.65 8.44165H41.8779V14.6816H46.65V8.44165Z" fill="#231815"/>
<path d="M52.9089 12.4143V11.5613C52.9089 11.0842 53.193 10.8164 53.699 10.8164H59.4189C59.9249 10.8164 60.209 11.0842 60.209 11.5613V12.4143C60.209 12.8923 59.9249 13.1604 59.4189 13.1604H53.699C53.193 13.1604 52.9089 12.8923 52.9089 12.4143Z" fill="#231815"/>
<path d="M64.9229 8.75708V6.38306C64.9229 5.90503 65.2059 5.63696 65.713 5.63696H66.5809C67.088 5.63696 67.3709 5.90503 67.3709 6.38306V8.75708C67.3709 11.6821 67.0219 14.085 65.9959 16.6379C65.8399 17.04 65.5379 17.2209 65.0949 17.2209H63.9749C63.39 17.2209 63.136 16.877 63.359 16.355C64.448 13.7122 64.9229 11.011 64.9229 8.75708ZM69.8509 6.38306C69.8509 5.90503 70.136 5.63696 70.6419 5.63696H71.511C71.5739 5.63696 71.6369 5.63696 71.6989 5.65112C71.6369 5.53101 71.605 5.38208 71.605 5.18896V4.323C71.605 3.84497 71.8259 3.57617 72.2049 3.57617C72.584 3.57617 72.8049 3.84497 72.8049 4.323V5.18896C72.8049 5.66504 72.6009 5.93506 72.2049 5.93506H72.1899C72.2519 6.05396 72.2999 6.2041 72.2999 6.38306V8.75708C72.2999 11.011 72.7729 13.7122 73.865 16.355C74.0849 16.877 73.833 17.2209 73.2479 17.2209H72.1259C71.6839 17.2209 71.3829 17.04 71.2259 16.6379C70.1989 14.085 69.8509 11.6821 69.8509 8.75708V6.38306ZM73.485 5.18896V4.323C73.485 3.84497 73.708 3.57617 74.0849 3.57617C74.4649 3.57617 74.687 3.84497 74.687 4.323V5.18896C74.687 5.66504 74.4809 5.93506 74.0849 5.93506C73.708 5.93506 73.485 5.66504 73.485 5.18896Z" fill="#231815"/>
<path d="M78.6081 10.0691V6.5752C78.6081 6.09717 78.893 5.8291 79.398 5.8291H80.205C80.71 5.8291 80.994 6.09717 80.994 6.5752V10.0691C80.994 12.1731 80.616 14.9351 79.794 16.6812C79.62 17.0701 79.304 17.22 78.877 17.22H77.866C77.266 17.22 77.0289 16.876 77.266 16.354C78.12 14.4431 78.6081 12.4431 78.6081 10.0691ZM82.3371 16.667V6.41211C82.3371 5.93408 82.6229 5.66406 83.1279 5.66406H83.948C84.454 5.66406 84.74 5.93408 84.74 6.41211V14.3091C85.624 13.949 86.24 13.592 86.857 13.084C87.393 12.6511 87.804 12.801 87.804 13.457V14.561C87.804 14.9351 87.694 15.2341 87.3779 15.533C86.177 16.592 84.596 17.1292 83.176 17.3682C82.653 17.458 82.3371 17.175 82.3371 16.667Z" fill="#231815"/>
<path d="M91.1279 15.1897C91.474 14.5918 91.791 13.8909 92.027 13.1587C92.186 12.6809 92.5329 12.5168 93.0229 12.6958L93.5289 12.8757C93.9869 13.0398 94.176 13.3679 94.0339 13.8159C93.781 14.6667 93.449 15.5479 93.0699 16.2788C92.834 16.7119 92.438 16.8018 91.995 16.5479L91.395 16.2197C90.954 15.9668 90.8889 15.6228 91.1279 15.1897ZM92.233 5.00781C92.233 4.53076 92.5179 4.26172 93.0229 4.26172H102.423C102.929 4.26172 103.214 4.53076 103.214 5.00781V10.8298C103.214 11.3079 102.929 11.5769 102.423 11.5769H98.1109C98.7109 11.9048 99.327 12.3079 99.817 12.6958C100.211 13.0249 100.196 13.4128 99.833 13.7568L99.406 14.1587C99.0429 14.5027 98.6639 14.4878 98.2839 14.1587C97.8419 13.7568 97.2569 13.3237 96.672 12.9668C96.261 12.7258 96.214 12.3828 96.5449 12.0708L97.068 11.5769H93.0229C92.5179 11.5769 92.233 11.3079 92.233 10.8298V5.00781ZM96.657 6.12769H94.303V7.03784H96.657V6.12769ZM96.657 8.77075H94.303V9.71191H96.657V8.77075ZM94.4599 13.7119C94.4599 13.2339 94.745 12.9668 95.25 12.9668H96.672V15.0999C96.672 15.5618 96.7839 15.6067 97.462 15.6067H99.1999C99.626 15.6067 99.7999 15.4878 99.895 14.8318C99.975 14.3088 100.196 14.1897 100.67 14.3989C100.844 14.4719 101.048 14.5469 101.239 14.6228C101.698 14.7708 101.918 15.0547 101.84 15.5327C101.539 17.1289 100.891 17.5618 99.39 17.5618H97.178C94.9809 17.5618 94.4599 16.9497 94.4599 15.1289V13.7119ZM101.048 6.12769H98.7739V7.03784H101.048V6.12769ZM101.048 8.77075H98.7739V9.71191H101.048V8.77075ZM101.887 12.8457L102.393 12.6367C102.834 12.4578 103.198 12.5327 103.451 12.9358C103.957 13.6819 104.43 14.5327 104.731 15.2788C104.904 15.7268 104.714 16.0398 104.273 16.2349L103.593 16.5168C103.103 16.7268 102.771 16.5618 102.597 16.0708C102.345 15.3828 101.965 14.5779 101.539 13.8457C101.27 13.3989 101.397 13.0547 101.887 12.8457Z" fill="#231815"/>
<path d="M107.895 11.8604C108.953 11.4573 109.997 10.9802 110.976 10.4573C111.023 10.2183 111.15 10.1284 111.292 10.1443L111.529 10.1733C111.909 9.96533 112.273 9.74023 112.634 9.51636H108.512C108.006 9.51636 107.722 9.24829 107.722 8.77026V8.45728C107.722 7.97925 108.006 7.71143 108.512 7.71143H112.161V6.82935H109.65C109.143 6.82935 108.859 6.56128 108.859 6.08325V5.82935C108.859 5.35132 109.143 5.08325 109.65 5.08325H112.161V4.39624C112.161 3.91821 112.445 3.65039 112.951 3.65039H113.536C114.041 3.65039 114.325 3.9043 114.325 4.36743V5.08325H116.459C116.965 5.08325 117.249 5.20337 117.249 5.44141V5.81543C117.58 5.47144 117.881 5.12842 118.165 4.77026C118.465 4.39624 118.813 4.30737 119.254 4.54639L119.635 4.75537C120.093 5.0083 120.203 5.38135 119.856 5.78442C119.303 6.45728 118.702 7.09937 118.071 7.71143H120.188C120.693 7.71143 120.977 7.97925 120.977 8.45728V8.77026C120.977 9.24829 120.693 9.51636 120.188 9.51636H115.969C115.448 9.9043 114.942 10.2783 114.405 10.6362C115.526 10.5022 116.601 10.3374 117.486 10.1284C117.912 10.0393 118.243 10.1284 118.529 10.4414L118.702 10.6362C119.097 11.0693 118.987 11.5022 118.387 11.6223C116.664 11.9802 114.626 12.2043 112.761 12.3074L112.634 12.8904H118.607C119.144 12.8904 119.445 13.0554 119.413 13.3232C119.398 13.4724 119.366 13.6362 119.334 13.7563C119.002 15.6973 118.607 16.7263 118.086 17.2043C117.628 17.6372 117.169 17.7573 116.459 17.8013C116.096 17.8323 115.558 17.8464 114.958 17.8464C114.452 17.8464 114.215 17.6084 114.104 17.1594C114.073 17.0112 114.026 16.8604 113.979 16.7124C113.772 16.1733 113.962 15.8762 114.579 15.9053C115.037 15.9214 115.463 15.9353 115.7 15.9353C115.969 15.9353 116.174 15.9053 116.348 15.7874C116.569 15.6372 116.759 15.2644 116.933 14.6223H112.176C112.176 14.6223 111.75 15.2344 111.261 15.1594L110.676 15.0842C110.139 15.0103 109.934 14.6814 110.076 14.1892C110.186 13.8013 110.298 13.3684 110.408 12.9214C109.949 13.1443 109.476 13.3542 109.018 13.5613C108.575 13.7563 108.228 13.6362 107.942 13.2634C107.847 13.1294 107.737 12.9944 107.627 12.8604C107.279 12.4272 107.374 12.0554 107.895 11.8604ZM116.221 6.82935H114.325V7.71143H115.179C115.543 7.42725 115.889 7.12842 116.221 6.82935Z" fill="#231815"/>
<path d="M137.304 7.1875C137.304 7.3667 137.289 7.55957 137.272 7.67969C136.988 13.5466 136.704 15.8306 136.024 16.6516C135.535 17.2925 135.045 17.4875 134.35 17.5916C133.924 17.6665 133.307 17.6807 132.659 17.6807C132.169 17.6807 131.932 17.4426 131.822 16.9937C131.775 16.7556 131.695 16.5166 131.601 16.2786C131.396 15.7417 131.568 15.4426 132.185 15.4717C132.674 15.4875 133.085 15.4875 133.339 15.4875C133.638 15.4875 133.829 15.4265 134.034 15.2336C134.46 14.8005 134.744 12.9197 134.965 8.90356H131.222C131 11.8445 130.021 15.2776 126.403 17.5466C125.992 17.8005 125.628 17.7117 125.312 17.3535C125.123 17.1277 124.918 16.9207 124.696 16.7107C124.301 16.3376 124.348 15.9937 124.823 15.7107C127.745 13.8896 128.63 11.2166 128.883 8.90356H125.312C124.806 8.90356 124.522 8.6355 124.522 8.15747V7.42554C124.522 6.94751 124.806 6.67969 125.312 6.67969H128.978V4.42554C128.978 3.94751 129.262 3.67969 129.768 3.67969H130.51C131.015 3.67969 131.3 3.94751 131.3 4.42554V6.67969H136.514C137.035 6.67969 137.319 6.85864 137.304 7.1875Z" fill="#231815"/>
<path d="M140.881 16.2795V15.4275C140.881 14.9507 141.165 14.6816 141.671 14.6816H148.022V8.44165H141.671C141.165 8.44165 140.881 8.17358 140.881 7.69556V6.84546C140.881 6.36768 141.165 6.09766 141.671 6.09766H149.807C150.313 6.09766 150.597 6.36768 150.597 6.84546V16.2795C150.597 16.7576 150.313 17.0256 149.807 17.0256H141.671C141.165 17.0256 140.881 16.7576 140.881 16.2795Z" fill="#231815"/>
<path d="M154.33 12.4143V11.5613C154.33 11.0842 154.615 10.8164 155.121 10.8164H160.84C161.346 10.8164 161.631 11.0842 161.631 11.5613V12.4143C161.631 12.8923 161.346 13.1604 160.84 13.1604H155.121C154.615 13.1604 154.33 12.8923 154.33 12.4143Z" fill="#231815"/>
<path d="M164.699 16.7878V15.5928C164.699 15.1897 164.873 14.9219 165.237 14.6968C168.017 13.0559 169.818 11.0698 171.003 8.24878H166.074C165.568 8.24878 165.284 7.97974 165.284 7.50269V6.5918C165.284 6.11377 165.568 5.8457 166.074 5.8457H173.483C174.036 5.8457 174.32 6.15869 174.178 6.66675C173.688 8.63672 172.804 10.3237 171.84 11.7268C172.582 12.7568 173.658 13.7268 174.557 14.4587C174.873 14.7129 175 14.9807 175 15.3689V16.5789C175 17.2048 174.557 17.4287 174.021 17.0398C172.646 16.0107 171.556 14.9509 170.435 13.5337C169.344 14.8018 167.432 16.3547 165.631 17.3247C165.11 17.6228 164.699 17.3699 164.699 16.7878Z" fill="#231815"/>
</svg>
